X: 85
T: the Sailor's Bonnet
R: reel
Z: 2012 John Chambers <jc@trillian.mit.edu>
B: "100 Essential Irish Session Tunes" 1995 Dave Mallinson, ed.
N: The first phrase was printed twice, but without a repeat.
M: 4/4
L: 1/8
K: D
B |\
"D"((3ABA) FA dfef | "D7"dfef "G"dB~B2 |\
"D"((3ABA) FA "Bm"dfec | "Em"dB"A7"AF "D"AD D :|
|: e |\
faab afdf | afef "G"dB~B2 |\
"Bm"fbba bafa | bfaf "Em"feea |
"Bm"bf~f2 "A7"afef | "D"afef "G"dBBd |\
"D"((3ABA) FA "Bm"dfec | "G"dB"A7"AF "D"AD D :|

%%sep 2 1 500
%%sep 1 1 500

